X:598
T: DAS LIEBEN BRINGT GROSS FREUD
N: E0558
O: Europa, Mitteleuropa, Deutschland, Schwaben
R: Liebes - Lied
M: 4/4
L: 1/8
K: G
D2 | G3AB2ce | d4z2
GB | d2d2c2dc | B4z2
GB | d2d2d2ed | dccBc2
d2 | B2B2BdcB | AFFGA2
GA | B4z2ce | d4z2
GB | d2d2c2dc | B4z2

